X: 1680
T: Hugh McArdle's Fancy   #1
R: hornpipe
%S: s:3 b:16(5+5+6)
B: O'Neill's 1850 #1680
O: J.O'Neill
M: 4/4
L: 1/8
K: G
B>c \
| d>ed>B g>fg>d | b2b>a g>fg>e | d>^cd>g B>GB>d | A>^GA>B A2 B>c || d>ed>B g>fg>d |
| b2b>a g>fg>e | d>gf>e d>cB>A | G2G2 HG2 :: A>B | c>Bc>A F>AD>F | G>AB>c d>fd>B |
| c>Bc>A B>AB>G | (3ABG (3FGE D2 A>B || c>Bc>A F>AD>F | G>AB>c d>fd>B | c>de>f a>ge>c | d2d2 "_D.C."d2 :|
